X:1
T:Pint of Derby, A
L:1/8
M:6/8
I:linebreak $
K:Gmin
V:1 treble 
V:1
 g2 a bbg | a2 d d2 g | fdB ced | cAB ^f>ed | G2 A BAG | c2 d edc | dgB A2 G | G3- G2 ::$ %8
 A2 B c>dc | d2 =e f2 g | f d2 c2 B | B3- B2 d | B f2 d g2 | =e a2 ^f2 d | c B2 A2 G | G6 :| %16
